icons/arrow-large-left.svg

<svg xmlns="http://www.w3.org/2000/svg" width="24" height="24" viewBox="0 0 24 24">
  <path d="M11.1923882,2.80761184 C11.5528721,3.16809581 11.5806017,3.73532686 11.2755768,4.12761807 L11.1923882,4.22182541 L4.414,10.9997186 L22,11 C22.5522847,11 23,11.4477153 23,12 C23,12.5128358 22.6139598,12.9355072 22.1166211,12.9932723 L22,13 L4.414,12.9997186 L11.1923882,19.7781746 C11.5829124,20.1686989 11.5829124,20.8018639 11.1923882,21.1923882 C10.8319042,21.5528721 10.2646731,21.5806017 9.87238193,21.2755768 L9.77817459,21.1923882 L1.29289322,12.7071068 L1.21968877,12.625449 C1.21865914,12.6241661 1.21763261,12.6228806 1.21660919,12.6215925 L1.29289322,12.7071068 C1.25342847,12.667642 1.21795187,12.6256994 1.1864634,12.5817796 C1.17604991,12.5671275 1.16565688,12.551756 1.15568797,12.5360882 L1.14781689,12.5236789 C1.1453062,12.5196009 1.1428275,12.5155088 1.14038077,12.5114029 L1.12681067,12.4877497 C1.11503374,12.4667113 1.10399512,12.4452036 1.09372989,12.4232619 C1.08497258,12.4045951 1.07680529,12.3855721 1.06925531,12.3663626 C1.06288066,12.3502364 1.05681015,12.3335527 1.0511777,12.3166686 C1.04514099,12.2983389 1.03972549,12.2803548 1.03482678,12.26226 C1.02943346,12.2427148 1.02458407,12.2223635 1.020367,12.2017818 C1.01679589,12.1839059 1.01366783,12.1662152 1.0110178,12.1484669 C1.00810098,12.1294204 1.00574796,12.1096949 1.00397748,12.0898018 C1.00188502,12.0658831 1.0006228,12.0424569 1.00017973,12.0190181 C1.00006128,12.0129086 1,12.0064615 1,12 L1.00017973,11.9809819 C1.00062118,11.9576287 1.00187582,11.9342879 1.00394365,11.9110058 L1,12 C1,11.9493797 1.00376119,11.8996379 1.01101934,11.8510388 C1.01365592,11.8338932 1.01671819,11.8165462 1.02024007,11.7992742 C1.02452166,11.7778335 1.02955987,11.756709 1.03525611,11.7358562 C1.03997972,11.7188351 1.04512601,11.7017685 1.05073782,11.6848222 C1.05652566,11.6672299 1.06272834,11.6501498 1.06937575,11.6332937 C1.07691653,11.6141449 1.08521338,11.5948444 1.09414586,11.5757679 C1.10284934,11.5572989 1.11205943,11.5391439 1.12179647,11.5213178 C1.12981337,11.5064512 1.13863517,11.4912297 1.14789148,11.4762 C1.16150681,11.4543017 1.17541687,11.4335467 1.19006311,11.4133605 C1.19730861,11.4032476 1.20502441,11.393032 1.21296211,11.3829339 C1.23772345,11.3514725 1.26445595,11.3213305 1.29289322,11.2928932 L9.77817459,2.80761184 C10.1686989,2.41708755 10.8018639,2.41708755 11.1923882,2.80761184 Z"/>
</svg>

<svg xmlns="http://www.w3.org/2000/svg" viewBox="0 0 24 24">
  <path d="M11.2 2.8a1 1 0 0 1 .08 1.33l-.09.1L4.41 11H22a1 1 0 0 1 .12 2H4.4l6.78 6.78a1 1 0 0 1-1.32 1.5l-.1-.09-8.48-8.48-.07-.08.07.08a1 1 0 0 1-.13-.17l-.01-.02h-.01l-.01-.03A1 1 0 0 1 1 12v-.02a1 1 0 0 1 0-.07V12a1 1 0 0 1 .3-.7l8.48-8.5a1 1 0 0 1 1.41 0z"/>
</svg>
